16x16/actions/view-financial-account-investment-closed.svg

<svg viewBox="0 0 16 16" xmlns="http://www.w3.org/2000/svg"><path d="m4.121 2 1 1h6.879v1h1v1h1v-3zm3.879 2c-.531 0-.954.242-1.281.598l.401.402h2.465c-.353-.563-.871-1-1.585-1zm-6 .121v.879h.879zm0 1.879v3h1v-1h1v-1h.879l-1-1zm6.121 0 1 1h2.879v1h1v1h1v-3zm-1.508 2.734c-.069.086-.14.171-.199.266h.465zm-4.613 1.266v4h1v-2h1v-1h4.879l-1-1zm10.121 0 1.879 1.879v-1.879zm-4.121 2a2 2 0 0 0 -2 2h1a1 1 0 0 1 1-1 1 1 0 0 1 1 1h1a2 2 0 0 0 -2-2z" fill="#555e70"/><path d="m2.707 2-.707.707 11.293 11.293.707-.732z" fill="#da4453"/></svg>

<svg viewBox="0 0 16 16" xmlns="http://www.w3.org/2000/svg"><path d="m4.121 2 1 1H12v1h1v1h1V2H4.121zM8 4c-.531 0-.954.242-1.281.598L7.12 5h2.465C9.232 4.437 8.714 4 8 4zm-6 .121V5h.879L2 4.121zM2 6v3h1V8h1V7h.879l-1-1H2zm6.121 0 1 1H12v1h1v1h1V6H8.121zM6.613 8.734c-.069.086-.14.171-.199.266h.465l-.266-.266zM2 10v4h1v-2h1v-1h4.879l-1-1H2zm10.121 0L14 11.879V10h-1.879zM8 12a2 2 0 0 0-2 2h1a1 1 0 0 1 1-1 1 1 0 0 1 1 1h1a2 2 0 0 0-2-2z" fill="currentColor" style="color:#555e70"/><path d="M2.707 2 2 2.707 13.293 14l.707-.732z" fill="currentColor" style="color:#da4453"/></svg>
